shader ClosestUV_OslProjection (
    output color Output_Color = 0,
    int size_u = 0,
    int size_v = 0
    )
{
    float iu = 1.0 / (float)size_u;
    float iv = 1.0 / (float)size_v;

    float iu_mid = 1.0 / (2.0 * (float)size_u);
    float iv_mid = 1.0 / (2.0 * (float)size_v);

    float u_closest = floor( u / iu ) * iu + iu_mid;
    float v_closest = floor( v / iv ) * iv + iv_mid;
    
    float tf = u_closest * v_closest;
    Output_Color = color(u_closest * u_closest * u_closest * 10);
}