shader SeparateUV(
    output color Output_Color = 0,
    int extract = 0
    )
{
    point pos = transform("world", "object", P);
    if(extract == 0)
    {
        Output_Color = color(u);
        return;
    }
    Output_Color = color(v);
}