#define X 0
#define Y 1
#define Z 2

#define R 0
#define G 1
#define B 2

#define point2(a, b) point(a, b, 0.0)
#define fract(val) mod(val, 1.0)

shader Position(
    output color OutputColor = 0,
    int comp = 0,
    float comp_max = 1.0
    )
{
    point pos = transform("world", "object", P);
    OutputColor = color(abs(pos[comp]) / comp_max);
}